public/assets/img/components/logo-airlock.svg

<svg width="281" height="68" viewBox="0 0 281 68" fill="none" xmlns="http://www.w3.org/2000/svg">
<path d="M92.3945 41.9697H101.726V45.5H88V24.1719H92.3945V41.9697Z" fill="black"/>
<path d="M113.166 45.5C112.971 45.1191 112.829 44.6455 112.741 44.0791C111.716 45.2217 110.383 45.793 108.742 45.793C107.189 45.793 105.9 45.3438 104.875 44.4453C103.859 43.5469 103.352 42.4141 103.352 41.0469C103.352 39.3672 103.972 38.0781 105.212 37.1797C106.462 36.2812 108.264 35.8271 110.617 35.8174H112.565V34.9092C112.565 34.1768 112.375 33.5908 111.994 33.1514C111.623 32.7119 111.032 32.4922 110.222 32.4922C109.509 32.4922 108.947 32.6631 108.537 33.0049C108.137 33.3467 107.937 33.8154 107.937 34.4111H103.703C103.703 33.4932 103.986 32.6436 104.553 31.8623C105.119 31.0811 105.92 30.4707 106.955 30.0312C107.99 29.582 109.152 29.3574 110.441 29.3574C112.395 29.3574 113.942 29.8506 115.085 30.8369C116.237 31.8135 116.813 33.1904 116.813 34.9678V41.8379C116.823 43.3418 117.033 44.4795 117.443 45.251V45.5H113.166ZM109.665 42.5557C110.29 42.5557 110.866 42.4189 111.394 42.1455C111.921 41.8623 112.312 41.4863 112.565 41.0176V38.293H110.983C108.864 38.293 107.736 39.0254 107.6 40.4902L107.585 40.7393C107.585 41.2666 107.771 41.7012 108.142 42.043C108.513 42.3848 109.021 42.5557 109.665 42.5557Z" fill="black"/>
<path d="M128.972 33.6201C128.396 33.542 127.888 33.5029 127.448 33.5029C125.847 33.5029 124.797 34.0449 124.299 35.1289V45.5H120.065V29.6504H124.064L124.182 31.54C125.031 30.085 126.208 29.3574 127.712 29.3574C128.181 29.3574 128.62 29.4209 129.03 29.5479L128.972 33.6201Z" fill="black"/>
<path d="M139.768 45.5C139.572 45.1191 139.431 44.6455 139.343 44.0791C138.317 45.2217 136.984 45.793 135.344 45.793C133.791 45.793 132.502 45.3438 131.477 44.4453C130.461 43.5469 129.953 42.4141 129.953 41.0469C129.953 39.3672 130.573 38.0781 131.813 37.1797C133.063 36.2812 134.865 35.8271 137.219 35.8174H139.167V34.9092C139.167 34.1768 138.977 33.5908 138.596 33.1514C138.225 32.7119 137.634 32.4922 136.823 32.4922C136.11 32.4922 135.549 32.6631 135.139 33.0049C134.738 33.3467 134.538 33.8154 134.538 34.4111H130.305C130.305 33.4932 130.588 32.6436 131.154 31.8623C131.721 31.0811 132.521 30.4707 133.557 30.0312C134.592 29.582 135.754 29.3574 137.043 29.3574C138.996 29.3574 140.544 29.8506 141.687 30.8369C142.839 31.8135 143.415 33.1904 143.415 34.9678V41.8379C143.425 43.3418 143.635 44.4795 144.045 45.251V45.5H139.768ZM136.267 42.5557C136.892 42.5557 137.468 42.4189 137.995 42.1455C138.522 41.8623 138.913 41.4863 139.167 41.0176V38.293H137.585C135.466 38.293 134.338 39.0254 134.201 40.4902L134.187 40.7393C134.187 41.2666 134.372 41.7012 134.743 42.043C135.114 42.3848 135.622 42.5557 136.267 42.5557Z" fill="black"/>
<path d="M152.365 40.3291L155.31 29.6504H159.733L154.387 45.5H150.344L144.997 29.6504H149.421L152.365 40.3291Z" fill="black"/>
<path d="M168.698 45.793C166.374 45.793 164.479 45.0801 163.015 43.6543C161.56 42.2285 160.832 40.3291 160.832 37.9561V37.5459C160.832 35.9541 161.14 34.5332 161.755 33.2832C162.37 32.0234 163.239 31.0566 164.362 30.3828C165.495 29.6992 166.784 29.3574 168.229 29.3574C170.397 29.3574 172.102 30.041 173.342 31.4082C174.592 32.7754 175.217 34.7139 175.217 37.2236V38.9521H165.124C165.261 39.9873 165.671 40.8174 166.354 41.4424C167.048 42.0674 167.922 42.3799 168.977 42.3799C170.607 42.3799 171.882 41.7891 172.8 40.6074L174.88 42.9365C174.245 43.835 173.386 44.5381 172.302 45.0459C171.218 45.5439 170.017 45.793 168.698 45.793ZM168.215 32.7852C167.375 32.7852 166.691 33.0684 166.164 33.6348C165.646 34.2012 165.314 35.0117 165.168 36.0664H171.057V35.7295C171.037 34.792 170.783 34.0693 170.295 33.5615C169.807 33.0439 169.113 32.7852 168.215 32.7852Z" fill="black"/>
<path d="M182.102 45.5H177.854V23H182.102V45.5Z" fill="black"/>
<path d="M205.656 39.5234H195.974L193.776 45.5H191.887L199.958 24.1719H201.672L209.743 45.5H207.868L205.656 39.5234ZM196.53 37.9854H205.085L200.808 26.3691L196.53 37.9854Z" fill="black"/>
<path d="M214.445 45.5H212.688V29.6504H214.445V45.5ZM212.38 25.0654C212.38 24.7334 212.487 24.4551 212.702 24.2305C212.917 23.9961 213.21 23.8789 213.581 23.8789C213.952 23.8789 214.245 23.9961 214.46 24.2305C214.685 24.4551 214.797 24.7334 214.797 25.0654C214.797 25.3975 214.685 25.6758 214.46 25.9004C214.245 26.125 213.952 26.2373 213.581 26.2373C213.21 26.2373 212.917 26.125 212.702 25.9004C212.487 25.6758 212.38 25.3975 212.38 25.0654Z" fill="black"/>
<path d="M226.545 31.1445C226.174 31.0762 225.778 31.042 225.358 31.042C224.265 31.042 223.337 31.3496 222.575 31.9648C221.823 32.5703 221.286 33.4541 220.964 34.6162V45.5H219.221V29.6504H220.935L220.964 32.1699C221.892 30.2949 223.381 29.3574 225.432 29.3574C225.92 29.3574 226.306 29.4209 226.589 29.5479L226.545 31.1445Z" fill="black"/>
<path d="M231.291 45.5H229.533V23H231.291V45.5Z" fill="black"/>
<path d="M235.1 37.3408C235.1 35.8174 235.393 34.4453 235.979 33.2246C236.574 32.0039 237.409 31.0566 238.483 30.3828C239.567 29.6992 240.793 29.3574 242.16 29.3574C244.27 29.3574 245.979 30.0996 247.287 31.584C248.596 33.0586 249.25 35.0166 249.25 37.458V37.8242C249.25 39.3574 248.952 40.7393 248.356 41.9697C247.771 43.1904 246.94 44.1328 245.866 44.7969C244.792 45.4609 243.566 45.793 242.189 45.793C240.09 45.793 238.381 45.0557 237.062 43.5811C235.754 42.0967 235.1 40.1338 235.1 37.6924V37.3408ZM236.857 37.8242C236.857 39.7188 237.346 41.2764 238.322 42.4971C239.309 43.708 240.598 44.3135 242.189 44.3135C243.771 44.3135 245.051 43.708 246.027 42.4971C247.014 41.2764 247.507 39.6699 247.507 37.6777V37.3408C247.507 36.1299 247.282 35.0215 246.833 34.0156C246.384 33.0098 245.754 32.2334 244.943 31.6865C244.133 31.1299 243.205 30.8516 242.16 30.8516C240.598 30.8516 239.323 31.4668 238.337 32.6973C237.351 33.918 236.857 35.5195 236.857 37.502V37.8242Z" fill="black"/>
<path d="M258.742 44.3135C259.963 44.3135 260.983 43.9717 261.804 43.2881C262.634 42.5947 263.083 41.7012 263.151 40.6074H264.836C264.787 41.5742 264.484 42.458 263.928 43.2588C263.371 44.0498 262.629 44.6699 261.701 45.1191C260.783 45.5684 259.797 45.793 258.742 45.793C256.662 45.793 255.012 45.0703 253.791 43.625C252.58 42.1797 251.975 40.2363 251.975 37.7949V37.2676C251.975 35.7051 252.248 34.3232 252.795 33.1221C253.342 31.9209 254.123 30.9932 255.139 30.3389C256.164 29.6846 257.36 29.3574 258.728 29.3574C260.466 29.3574 261.896 29.875 263.02 30.9102C264.152 31.9453 264.758 33.3076 264.836 34.9971H263.151C263.073 33.7568 262.624 32.7559 261.804 31.9941C260.993 31.2324 259.968 30.8516 258.728 30.8516C257.146 30.8516 255.915 31.4229 255.036 32.5654C254.167 33.708 253.732 35.3096 253.732 37.3701V37.8828C253.732 39.9043 254.167 41.4814 255.036 42.6143C255.915 43.7471 257.15 44.3135 258.742 44.3135Z" fill="black"/>
<path d="M272.116 37.5166L270.109 39.4502V45.5H268.352V23H270.109V37.3994L271.765 35.6123L277.829 29.6504H280.041L273.317 36.3301L280.627 45.5H278.532L272.116 37.5166Z" fill="black"/>
<circle r="8" transform="matrix(1 0 0 -1 34 34)" fill="#1C5872"/>
<path d="M23.1421 4H32V16H23.9706L16 23.9706V44.0294L23.9706 52H32V64H23.1421C20.49 64 17.9464 62.9464 16.0711 61.0711L6.92893 51.9289C5.05357 50.0536 4 47.51 4 44.8579V42H8C9.10457 42 10 41.1046 10 40C10 38.8954 9.10457 38 8 38H4V30H8C9.10457 30 10 29.1046 10 28C10 26.8954 9.10457 26 8 26H4V23.1421C4 20.49 5.05357 17.9464 6.92893 16.0711L16.0711 6.92893C17.9464 5.05357 20.49 4 23.1421 4Z" fill="url(#paint0_linear)"/>
<path d="M36 64V52H44.0294L52 44.0294V23.9706L44.0294 16H36V4H44.8579C47.51 4 50.0536 5.05357 51.9289 6.92893L61.0711 16.0711C62.9464 17.9464 64 20.49 64 23.1421V26H60C58.8954 26 58 26.8954 58 28C58 29.1046 58.8954 30 60 30H64V38H60C58.8954 38 58 38.8954 58 40C58 41.1046 58.8954 42 60 42H64V44.8579C64 47.51 62.9464 50.0536 61.0711 51.9289L51.9289 61.0711C50.0536 62.9464 47.51 64 44.8579 64H36Z" fill="url(#paint1_linear)"/>
<defs>
<linearGradient id="paint0_linear" x1="34" y1="4" x2="34" y2="64" gradientUnits="userSpaceOnUse">
<stop stop-color="#7BE7EE"/>
<stop offset="1" stop-color="#18CAF1"/>
</linearGradient>
<linearGradient id="paint1_linear" x1="34" y1="4" x2="34" y2="64" gradientUnits="userSpaceOnUse">
<stop stop-color="#7BE7EE"/>
<stop offset="1" stop-color="#18CAF1"/>
</linearGradient>
</defs>
</svg>

<svg width="281" height="68" fill="none" xmlns="http://www.w3.org/2000/svg"><g id="word"><path d="M92.394 41.97h9.332v3.53H88V24.172h4.394V41.97zM113.166 45.5c-.195-.38-.337-.855-.425-1.42-1.025 1.142-2.358 1.713-3.999 1.713-1.553 0-2.842-.45-3.867-1.348-1.016-.898-1.523-2.03-1.523-3.398 0-1.68.62-2.969 1.86-3.867 1.25-.899 3.052-1.353 5.405-1.363h1.948v-.908c0-.732-.19-1.318-.571-1.758-.371-.44-.962-.659-1.772-.659-.713 0-1.275.171-1.685.513-.4.342-.6.81-.6 1.406h-4.234c0-.918.283-1.767.85-2.549.566-.78 1.367-1.391 2.402-1.83 1.035-.45 2.197-.675 3.486-.675 1.954 0 3.501.494 4.644 1.48 1.152.977 1.728 2.353 1.728 4.13v6.87c.01 1.505.22 2.642.63 3.414v.249h-4.277zm-3.501-2.944c.625 0 1.201-.137 1.729-.41.527-.284.918-.66 1.171-1.128v-2.725h-1.582c-2.119 0-3.247.732-3.383 2.197l-.015.25c0 .527.186.961.557 1.303.371.342.879.513 1.523.513zM128.972 33.62a11.504 11.504 0 00-1.524-.117c-1.601 0-2.651.542-3.149 1.626V45.5h-4.234V29.65h3.999l.118 1.89c.849-1.455 2.026-2.183 3.53-2.183.469 0 .908.064 1.318.19l-.058 4.073zM139.768 45.5c-.196-.38-.337-.855-.425-1.42-1.026 1.142-2.359 1.713-3.999 1.713-1.553 0-2.842-.45-3.867-1.348-1.016-.898-1.524-2.03-1.524-3.398 0-1.68.62-2.969 1.86-3.867 1.25-.899 3.052-1.353 5.406-1.363h1.948v-.908c0-.732-.19-1.318-.571-1.758-.371-.44-.962-.659-1.773-.659-.713 0-1.274.171-1.684.513-.401.342-.601.81-.601 1.406h-4.233c0-.918.283-1.767.849-2.549.567-.78 1.367-1.391 2.403-1.83 1.035-.45 2.197-.675 3.486-.675 1.953 0 3.501.494 4.644 1.48 1.152.977 1.728 2.353 1.728 4.13v6.87c.01 1.505.22 2.642.63 3.414v.249h-4.277zm-3.501-2.944c.625 0 1.201-.137 1.728-.41.527-.284.918-.66 1.172-1.128v-2.725h-1.582c-2.119 0-3.247.732-3.384 2.197l-.014.25c0 .527.185.961.556 1.303.371.342.879.513 1.524.513zM152.365 40.33l2.945-10.68h4.423l-5.346 15.85h-4.043l-5.347-15.85h4.424l2.944 10.68zM168.698 45.793c-2.324 0-4.219-.713-5.683-2.139-1.455-1.426-2.183-3.325-2.183-5.698v-.41c0-1.592.308-3.013.923-4.263.615-1.26 1.484-2.226 2.607-2.9 1.133-.684 2.422-1.026 3.867-1.026 2.168 0 3.873.684 5.113 2.051 1.25 1.367 1.875 3.306 1.875 5.816v1.728h-10.093c.137 1.035.547 1.865 1.23 2.49.694.625 1.568.938 2.623.938 1.63 0 2.905-.59 3.823-1.773l2.08 2.33c-.635.898-1.494 1.601-2.578 2.109-1.084.498-2.285.747-3.604.747zm-.483-13.008c-.84 0-1.524.283-2.051.85-.518.566-.85 1.377-.996 2.431h5.889v-.337c-.02-.937-.274-1.66-.762-2.167-.488-.518-1.182-.777-2.08-.777zM182.102 45.5h-4.248V23h4.248v22.5zM205.656 39.523h-9.682l-2.198 5.977h-1.889l8.071-21.328h1.714l8.071 21.328h-1.875l-2.212-5.977zm-9.126-1.538h8.555l-4.277-11.616-4.278 11.616zM214.445 45.5h-1.757V29.65h1.757V45.5zm-2.065-20.435c0-.332.107-.61.322-.835.215-.234.508-.351.879-.351s.664.117.879.351c.225.225.337.503.337.835 0 .332-.112.61-.337.835-.215.225-.508.337-.879.337s-.664-.112-.879-.337a1.16 1.16 0 01-.322-.835zM226.545 31.145a6.557 6.557 0 00-1.187-.103c-1.093 0-2.021.308-2.783.923-.752.605-1.289 1.49-1.611 2.651V45.5h-1.743V29.65h1.714l.029 2.52c.928-1.875 2.417-2.813 4.468-2.813.488 0 .874.064 1.157.19l-.044 1.598zM231.291 45.5h-1.758V23h1.758v22.5zM235.1 37.34c0-1.523.293-2.895.879-4.115.595-1.221 1.43-2.168 2.504-2.842 1.084-.684 2.31-1.026 3.677-1.026 2.11 0 3.819.743 5.127 2.227 1.309 1.475 1.963 3.433 1.963 5.874v.366c0 1.533-.298 2.915-.894 4.146-.585 1.22-1.416 2.163-2.49 2.827-1.074.664-2.3.996-3.677.996-2.099 0-3.808-.737-5.127-2.212-1.308-1.484-1.962-3.447-1.962-5.889v-.351zm1.757.484c0 1.895.489 3.452 1.465 4.673.987 1.211 2.276 1.816 3.867 1.816 1.582 0 2.862-.605 3.838-1.816.987-1.22 1.48-2.827 1.48-4.82v-.336c0-1.211-.225-2.32-.674-3.325-.449-1.006-1.079-1.783-1.89-2.33-.81-.556-1.738-.834-2.783-.834-1.562 0-2.837.615-3.823 1.845-.986 1.221-1.48 2.822-1.48 4.805v.322zM258.742 44.313c1.221 0 2.241-.341 3.062-1.025.83-.693 1.279-1.587 1.347-2.68h1.685a5.008 5.008 0 01-.908 2.65c-.557.792-1.299 1.412-2.227 1.861a6.64 6.64 0 01-2.959.674c-2.08 0-3.73-.723-4.951-2.168-1.211-1.445-1.816-3.389-1.816-5.83v-.527c0-1.563.273-2.945.82-4.146.547-1.201 1.328-2.129 2.344-2.783 1.025-.654 2.221-.982 3.589-.982 1.738 0 3.168.518 4.292 1.553 1.132 1.035 1.738 2.398 1.816 4.087h-1.685c-.078-1.24-.527-2.241-1.347-3.003-.811-.762-1.836-1.142-3.076-1.142-1.582 0-2.813.57-3.692 1.713-.869 1.143-1.304 2.745-1.304 4.805v.513c0 2.021.435 3.598 1.304 4.731.879 1.133 2.114 1.7 3.706 1.7zM272.116 37.517l-2.007 1.933v6.05h-1.757V23h1.757v14.4l1.656-1.788 6.064-5.962h2.212l-6.724 6.68 7.31 9.17h-2.095l-6.416-7.983z"/></g><circle r="8" transform="matrix(1 0 0 -1 34 34)" fill="#1C5872"/><path d="M23.142 4H32v12h-8.03L16 23.97v20.06L23.97 52H32v12h-8.858a10 10 0 01-7.07-2.929L6.928 51.93A10 10 0 014 44.858V42h4a2 2 0 100-4H4v-8h4a2 2 0 100-4H4v-2.858a10 10 0 012.929-7.07l9.142-9.143A10 10 0 0123.142 4z" fill="url(#paint0_linear)"/><path d="M36 64V52h8.03L52 44.03V23.97L44.03 16H36V4h8.858a10 10 0 017.07 2.929l9.143 9.142A10 10 0 0164 23.142V26h-4a2 2 0 100 4h4v8h-4a2 2 0 100 4h4v2.858a10 10 0 01-2.929 7.07l-9.142 9.143A10 10 0 0144.858 64H36z" fill="url(#paint1_linear)"/><defs><linearGradient id="paint0_linear" x1="34" y1="4" x2="34" y2="64" gradientUnits="userSpaceOnUse"><stop stop-color="#7BE7EE"/><stop offset="1" stop-color="#18CAF1"/></linearGradient><linearGradient id="paint1_linear" x1="34" y1="4" x2="34" y2="64" gradientUnits="userSpaceOnUse"><stop stop-color="#7BE7EE"/><stop offset="1" stop-color="#18CAF1"/></linearGradient></defs><style>#word{fill:#000}@media (prefers-color-scheme:dark){#word{fill:#fff}}</style></svg>
